X:330
T: "Ritt ins Feenland "
N: Z1010
O: Europa, Mitteleuropa, Deutschland
R: Romanze, Ballade
M: 6/8
L: 1/16
K: G
_B2 | _B3A=F2B4c2 | d4c2d4
d_e | =f3_edcd4c2 | _B4z6
c2 | c4B2c4_ed | c4B2c4z2
c6d6 | _e3dc_BA3cBA | G6z4

